X: 11778
T: Elizabeth Kelly's Delight
R: slip jig
M: 9/8
K: Edorian
e3 efe edB|e2 Bd2 B ABd|e3 efe edB|d3 d2 B ABd|
e3 efe edB|e2 Bd2 B ABd|e3 efe edB|d3 d2 B ABd||
g2 e fed edB|gfe fdB ABd|g2 e fed edB|d3 d2 B ABd|
g2 e fed edB|gfe fdB ABd|g2 e fed edB|d3 d2 B ABd||

